X:7
T:Trip to Fieldings. ThoH.007, A
Q:1/2=100
M:C
L:1/8
B:Thompson's Compleat Collection of 120 Favourite Hornpipes.
Z:Village Music Project, Simon Wilson 2016
O:England.
K:A
(ecBA)f4|(ecBA)G2(AB)|E2(FG) (Ac)(Bd)|(cedc)B2E2|
(eaga){g}Tf4|(ecBA)G2(AB)|(EG)A2(FAdf)|1ecdBA2A,2:|2ecdBA4||
((3ced) ((3cBA) ((3GBA) ((3GFE)|(ec)(ac)B2E2|(cedc) (BGFE)|((3agf) ((3edc){c}TB4|
(gb)(^df) (ecBA)|(GB)e2(^df)a2|(gb)(^df) (ec)(BA)|
G(gf)^de2E2|(aecA)d2f2|ecBA{c}TB3c|dB{c}B2Tf3e|
(dcBA)G2E2|(aecA)d2f2|(ecBA) (Bcde)|(fg)a2(ecBA)|(dBAG)A4|]

